X:1
T:Title
%%score [ ( 1 2 ) ( 3 4 ) ]
L:1/8
Q:1/4=120
M:4/4
K:F
V:1 treble nm="MusicXML Part"
V:2 treble 
V:3 bass nm="MusicXML Part"
V:4 bass 
V:1
"^Psalm 23""^T. A. Walmisley" A8 | A4 A4 | A8 || B8 | d4 c4 | F4 B4 | G8 || A8 | =B4 B4 | c8 || %10
 F8 | G4 A4 | B4 E4 | F8 |] %14
V:2
 C8 | ^C4 C4 | D8 || F8 | F4 F4 | F4 G4 | E8 || F8 | G4 G4 | G8 || F8 | D2 E2 F4 | D4 C2 B,2 | %13
 A,8 |] %14
V:3
 A,8 | G,4 G,4 | F,8 || B,8 | B,4 C4 | A,4 D4 | C8 || C8 | D4 D4 | C8 || A,8 | G,4 C4 | B,4 G,4 | %13
 F,8 |] %14
V:4
 F,8 | E,4 E,4 | D,8 || D,8 | B,,4 A,,4 | D,4 G,,4 | C,8 || F,8 | F,4 F,4 | E,8 || D,8 | %11
 B,,4 A,,4 | G,,4 C,4 | F,,8 |] %14

